wind-turbine.svg

<svg fill="currentColor" viewBox="0 0 24 24"><path d="m13.33 11.67 2.88 2.91c1.41-1.42 0-2.83 0-2.83l-1.49-1.51c.18-.38.28-.8.28-1.24 0-1.05-.54-1.97-1.36-2.5L15 2.11c-1.91-.58-2.5 1.33-2.5 1.33l-.81 2.59c-1.23.13-2.23.97-2.56 2.15L4.67 9.63c.64 1.9 2.53 1.27 2.53 1.27l2.07-.67c.34.74.96 1.31 1.73 1.59V19s-2 0-2 2v1h6v-1s0-2-2-2v-7.18c.12-.04.23-.1.33-.15M10.5 9A1.5 1.5 0 0 1 12 7.5 1.5 1.5 0 0 1 13.5 9a1.5 1.5 0 0 1-1.5 1.5A1.5 1.5 0 0 1 10.5 9"/></svg>

<svg  viewBox="0 0 24 24" fill="currentColor"><path  d="M13.33,11.67L16.21,14.58C17.62,13.16 16.21,11.75 16.21,11.75L14.72,10.24C14.9,9.86 15,9.44 15,9C15,7.95 14.46,7.03 13.64,6.5L15,2.11C13.09,1.53 12.5,3.44 12.5,3.44L11.69,6.03C10.46,6.16 9.46,7 9.13,8.18L4.67,9.63C5.31,11.53 7.2,10.9 7.2,10.9L9.27,10.23C9.61,10.97 10.23,11.54 11,11.82V19C11,19 9,19 9,21C9,21.5 9,21.81 9,22H15V21C15,21 15,19 13,19V11.82C13.12,11.78 13.23,11.72 13.33,11.67M10.5,9A1.5,1.5 0 0,1 12,7.5A1.5,1.5 0 0,1 13.5,9A1.5,1.5 0 0,1 12,10.5A1.5,1.5 0 0,1 10.5,9Z"/></svg>
